X:168
T:Y Clychau - The Bells
M:5/4
L:1/4
Q:100
C:Trad.
R:Air
N:Last three bars change to 6/4 time
K:D
D A G F E | D A G F E | D
A G F E | D A G F E | B
G E F A | B G E F A ||
!M:6/4
L:1/8
Q:1/8=200
K:D
B2 G2 E2 A2 F2 D2 | G2 B2 E2 F2 A2 D2 | A2 G2 F2 E2
D4 ||

